x-pack/solutions/observability/plugins/infra/public/images/docker.svg

<?xml version="1.0" encoding="UTF-8"?>
<svg width="169px" height="118px" viewBox="0 0 169 118" version="1.1" xmlns="http://www.w3.org/2000/svg" xmlns:xlink="http://www.w3.org/1999/xlink">
    <!-- Generator: Sketch 48.2 (47327) - http://www.bohemiancoding.com/sketch -->
    <title>Shape</title>
    <desc>Created with Sketch.</desc>
    <defs/>
    <g id="Beats/Hosts-Map" stroke="none" stroke-width="1" fill="none" fill-rule="evenodd" transform="translate(-977.000000, -95.000000)">
        <g id="docker-tile" transform="translate(977.000000, 95.000000)" fill="#0379a5" fill-rule="nonzero">
            <path d="M96.3487664,54.0538922 L113.629885,54.0538922 L113.629885,38.1556886 L95.9960905,38.1556886 L96.3487664,54.0538922 Z M75.5408888,54.0538922 L92.8220075,54.0538922 L92.8220075,38.1556886 L75.5408888,38.1556886 L75.5408888,54.0538922 Z M54.7330112,54.0538922 L72.3668058,54.0538922 L72.3668058,38.1556886 L54.7330112,38.1556886 L54.7330112,54.0538922 Z M33.9251336,54.0538922 L51.5589282,54.0538922 L51.5589282,38.1556886 L33.9251336,38.1556886 L33.9251336,54.0538922 Z M13.1172561,54.0538922 L30.7510506,54.0538922 L30.7510506,38.1556886 L13.4699319,38.1556886 L13.1172561,54.0538922 Z M33.9251336,34.9760479 L51.5589282,34.9760479 L51.5589282,19.0778443 L33.9251336,19.0778443 L33.9251336,34.9760479 Z M54.7330112,34.9760479 L72.3668058,34.9760479 L72.3668058,19.0778443 L54.7330112,19.0778443 L54.7330112,34.9760479 Z M75.5408888,34.9760479 L92.8220075,34.9760479 L92.8220075,19.0778443 L75.5408888,19.0778443 L75.5408888,34.9760479 Z M75.5408888,15.8982036 L92.8220075,15.8982036 L92.8220075,0 L75.5408888,0 L75.5408888,15.8982036 Z M166.178593,44.8682635 C162.299158,42.3952096 153.482261,41.3353293 146.781419,42.748503 C145.723391,36.3892216 142.196632,30.7365269 135.848466,25.7904192 L132.321707,23.3173653 L129.852976,27.2035928 C126.678893,31.7964072 124.915514,38.508982 125.620865,44.8682635 C125.973541,46.988024 126.678893,50.8742515 128.794948,54.4071856 C126.678893,55.8203593 122.094106,57.2335329 116.098616,57.2335329 L0.773599861,57.2335329 L0.42092397,58.6467066 C-0.637103704,65.005988 -0.637103704,85.1437126 12.0592284,100.335329 C21.9341533,111.994012 36.7465408,118 55.7910389,118 C97.4067941,118 128.089597,98.9221557 142.549308,63.9461078 C148.192122,63.9461078 160.535779,63.9461078 166.531269,51.9341317 L168.294648,48.754491 L169,47.3413174 L166.178593,44.8682635 Z" id="Shape"/>
        </g>
    </g>
</svg>

<svg xmlns="http://www.w3.org/2000/svg" width="169" height="118"><path fill="#0379a5" fill-rule="nonzero" d="M96.349 54.054h17.28V38.156H95.997zm-20.808 0h17.281V38.156H75.541zm-20.808 0h17.634V38.156H54.733zm-20.808 0H51.56V38.156H33.925zm-20.808 0h17.634V38.156H13.47zm20.808-19.078H51.56V19.078H33.925zm20.808 0h17.634V19.078H54.733zm20.808 0h17.281V19.078H75.541zm0-19.078h17.281V0H75.541zm90.638 28.97c-3.88-2.473-12.697-3.533-19.398-2.12-1.058-6.359-4.584-12.011-10.933-16.958l-3.526-2.473-2.469 3.887c-3.174 4.592-4.937 11.305-4.232 17.664.353 2.12 1.058 6.006 3.174 9.54-2.116 1.412-6.7 2.826-12.696 2.826H.774L.42 58.647c-1.058 6.359-1.058 26.497 11.638 41.688C21.934 111.994 36.747 118 55.791 118c41.616 0 72.299-19.078 86.758-54.054 5.643 0 17.987 0 23.982-12.012l1.764-3.18.705-1.413z"/></svg>
